icons/svg/subway/subway_san_francisco.svg

<?xml version="1.0" encoding="UTF-8" standalone="no"?>
<svg
   xmlns:dc="http://purl.org/dc/elements/1.1/"
   xmlns:cc="http://creativecommons.org/ns#"
   xmlns:rdf="http://www.w3.org/1999/02/22-rdf-syntax-ns#"
   xmlns:svg="http://www.w3.org/2000/svg"
   xmlns="http://www.w3.org/2000/svg"
   xmlns:sodipodi="http://sodipodi.sourceforge.net/DTD/sodipodi-0.dtd"
   xmlns:inkscape="http://www.inkscape.org/namespaces/inkscape"
   width="16"
   height="16"
   id="svg2"
   version="1.1"
   inkscape:version="0.91 r13725"
   sodipodi:docname="subway_san_francisco.svg">
  <defs
     id="defs13">
    <linearGradient
       gradientTransform="matrix(0.08596979,0,0,0.08596979,0.67480439,1.9432845)"
       x1="87.101639"
       y1="121.69753"
       x2="87.260849"
       y2="1.2385538"
       id="l1"
       gradientUnits="userSpaceOnUse">
      <stop
         style="stop-color:#e92203;stop-opacity:1"
         offset="0"
         id="stop5" />
      <stop
         style="stop-color:#ff0000;stop-opacity:0.64628822"
         offset="1"
         id="stop7" />
    </linearGradient>
    <linearGradient
       gradientTransform="matrix(0.08400469,0,0,0.08400469,0.8422306,2.0814238)"
       x1="87.101639"
       y1="121.69753"
       x2="87.260849"
       y2="1.2385538"
       id="l1-2"
       gradientUnits="userSpaceOnUse">
      <stop
         style="stop-color:#e92203;stop-opacity:1"
         offset="0"
         id="stop5-8" />
      <stop
         style="stop-color:#ff0000;stop-opacity:0.64628822"
         offset="1"
         id="stop7-4" />
    </linearGradient>
  </defs>
  <sodipodi:namedview
     pagecolor="#ffffff"
     bordercolor="#666666"
     borderopacity="1"
     objecttolerance="10"
     gridtolerance="10"
     guidetolerance="10"
     inkscape:pageopacity="0"
     inkscape:pageshadow="2"
     inkscape:window-width="1920"
     inkscape:window-height="1006"
     id="namedview11"
     showgrid="true"
     inkscape:zoom="45.254834"
     inkscape:cx="4.1131475"
     inkscape:cy="8.4446588"
     inkscape:window-x="1920"
     inkscape:window-y="0"
     inkscape:window-maximized="1"
     inkscape:current-layer="svg2"
     showguides="false"
     inkscape:snap-global="false">
    <sodipodi:guide
       position="0,0"
       orientation="0,580"
       id="guide2989" />
    <sodipodi:guide
       position="580,0"
       orientation="-580,0"
       id="guide2991" />
    <sodipodi:guide
       position="580,580"
       orientation="0,-580"
       id="guide2993" />
    <sodipodi:guide
       position="0,580"
       orientation="580,0"
       id="guide2995" />
    <sodipodi:guide
       position="0,0"
       orientation="0,580"
       id="guide2997" />
    <sodipodi:guide
       position="580,0"
       orientation="-580,0"
       id="guide2999" />
    <sodipodi:guide
       position="580,580"
       orientation="0,-580"
       id="guide3001" />
    <sodipodi:guide
       position="0,580"
       orientation="580,0"
       id="guide3003" />
    <inkscape:grid
       type="xygrid"
       id="grid3013"
       empspacing="5"
       visible="true"
       enabled="true"
       snapvisiblegridlinesonly="true" />
  </sodipodi:namedview>
  <metadata
     id="metadata2975">image/svg+xmlen<rdf:RDF>
  <cc:Work
     rdf:about="">
    <dc:format>image/svg+xml</dc:format>
    <dc:type
       rdf:resource="http://purl.org/dc/dcmitype/StillImage" />
    <dc:title></dc:title>
  </cc:Work>
</rdf:RDF>
</metadata>
  <path
     sodipodi:type="inkscape:offset"
     inkscape:radius="0.6408155"
     inkscape:original="M 3.5117188 4.3984375 C 3.2026665 4.3984375 2.953125 4.6460259 2.953125 4.9550781 L 2.953125 11.044922 C 2.953125 11.353974 3.2026665 11.601562 3.5117188 11.601562 L 12.488281 11.601562 C 12.797333 11.601562 13.046875 11.353974 13.046875 11.044922 L 13.046875 4.9550781 C 13.046875 4.6460259 12.797333 4.3984375 12.488281 4.3984375 L 3.5117188 4.3984375 z "
     style="color:#000000;clip-rule:nonzero;display:inline;overflow:visible;visibility:visible;opacity:1;isolation:auto;mix-blend-mode:normal;color-interpolation:sRGB;color-interpolation-filters:linearRGB;solid-color:#000000;solid-opacity:1;fill:#091060;fill-opacity:1;fill-rule:nonzero;stroke:none;stroke-width:1;stroke-linecap:butt;stroke-linejoin:miter;stroke-miterlimit:4;stroke-dasharray:none;stroke-dashoffset:0;stroke-opacity:1;marker:none;color-rendering:auto;image-rendering:auto;shape-rendering:auto;text-rendering:auto;enable-background:accumulate"
     id="path4244"
     d="M 3.5117188,3.7578125 C 2.8604191,3.7578125 2.3125,4.3010787 2.3125,4.9550781 l 0,6.0898439 c 0,0.653999 0.5479197,1.197266 1.1992188,1.197266 l 8.9765622,0 c 0.651299,0 1.199219,-0.543266 1.199219,-1.197266 l 0,-6.0898439 c 0,-0.6540001 -0.547919,-1.1972656 -1.199219,-1.1972656 l -8.9765622,0 z"
     transform="matrix(0.98057399,0,0,0.98057399,0.15540808,0.15540809)" />
  <rect
     style="color:#000000;clip-rule:nonzero;display:inline;overflow:visible;visibility:visible;opacity:1;isolation:auto;mix-blend-mode:normal;color-interpolation:sRGB;color-interpolation-filters:linearRGB;solid-color:#000000;solid-opacity:1;fill:#fefefe;fill-opacity:1;fill-rule:nonzero;stroke:none;stroke-width:1;stroke-linecap:butt;stroke-linejoin:miter;stroke-miterlimit:4;stroke-dasharray:none;stroke-dashoffset:0;stroke-opacity:1;marker:none;color-rendering:auto;image-rendering:auto;shape-rendering:auto;text-rendering:auto;enable-background:accumulate"
     id="rect4227"
     width="10.093487"
     height="7.2036505"
     x="2.9532566"
     y="4.3981748"
     ry="0.55785596" />
  <path
     inkscape:connector-curvature="0"
     style="fill:#0083d2"
     d="M 9.76412,7.0046645 C 9.1955582,7.004494 8.9828289,7.0353082 8.5299702,7.2480382 8.2728883,7.3688016 8.1462152,7.4459652 8.1382681,7.5245338 L 7.9121752,9.7537793 8.226113,10.054757 8.4421251,10.191565 c 0.3813696,0.242441 0.7668274,0.33036 1.3579966,0.309617 0.4458673,-0.01565 0.5566183,-0.03636 0.8021253,-0.148328 0.141814,-0.06467 0.256334,-0.08678 0.256334,-0.02304 l 0.0086,0.167049 0.725802,0 0.633635,0 -0.0086,-1.7842615 0,-1.7079363 -0.576033,0 -0.783404,0 0,0.2073717 C 10.437834,7.0290553 10.251589,7.0048106 9.76412,7.0046645 Z m 0.00431,0.7142802 c 0.1330674,-0.00265 0.264553,0.027071 0.401783,0.089285 0.352017,0.1595912 0.548012,0.4109009 0.616351,0.7877245 0.07043,0.3883507 -0.205824,0.8816711 -0.591873,1.0570191 C 9.5891951,9.9280033 8.8927456,9.5405843 8.764701,8.8580489 8.6934204,8.4780912 8.9624525,8.0069003 9.3551344,7.8240707 9.5008535,7.7562248 9.63537,7.7215934 9.7684378,7.7189447 Z"
     id="path1889" />
  <path
     inkscape:connector-curvature="0"
     style="fill:#000000"
     d="m 3.773382,5.4407364 0,2.4308569 0.00864,2.6252687 0.5875531,0 0.8294868,0 -0.017281,-0.241933 c 0.05145,-0.135324 0.03497,0.01215 0.2203325,0.108005 0.074559,0.03856 0.358074,0.09856 0.5040284,0.133928 0.6543605,0.158569 1.407899,0.0026 2.0233141,-0.328338 C 8.4786581,9.8731483 8.6779316,9.3734383 8.7042199,8.7054003 8.719694,8.312181 8.597729,8.1858452 8.509809,7.9522379 8.3211893,7.4510672 7.7235657,7.0945547 7.0337257,6.9326604 6.6329939,6.8386152 5.984388,6.8756391 5.6814896,6.9902637 5.5318201,7.0469025 5.3433972,7.1552502 5.1904219,7.2019556 l 0,-0.9274122 0,-0.833807 -0.7949249,0 -0.622115,0 z M 6.4087306,7.723265 C 6.7256,7.698271 7.0662719,7.812843 7.3275023,8.1034465 7.6875358,8.5039628 7.5066223,9.2958693 7.0078043,9.5881703 6.3470653,9.9252533 5.6102829,9.5838703 5.5072397,8.8321275 5.4195587,8.1924261 5.8806147,7.764922 6.4087306,7.723265 Z"
     id="path1885" />
</svg>

<svg width="16" height="16" viewBox="0 0 16 16" fill="none" xmlns="http://www.w3.org/2000/svg">
<path d="M3.5989 3.84021C2.96025 3.84021 2.42297 4.37292 2.42297 5.01422V10.9858C2.42297 11.6271 2.96025 12.1598 3.5989 12.1598H12.4011C13.0397 12.1598 13.577 11.6271 13.577 10.9858V5.01422C13.577 4.37292 13.0397 3.84021 12.4011 3.84021H3.5989V3.84021Z" fill="#091060"/>
<path d="M12.4889 4.39816H3.5111C3.20301 4.39816 2.95325 4.64792 2.95325 4.95602V11.044C2.95325 11.3521 3.20301 11.6018 3.5111 11.6018H12.4889C12.797 11.6018 13.0467 11.3521 13.0467 11.044V4.95602C13.0467 4.64792 12.797 4.39816 12.4889 4.39816Z" fill="#FEFEFE"/>
<path d="M9.76412 7.00467C9.19555 7.0045 8.98282 7.03531 8.52997 7.24804C8.27288 7.36881 8.14621 7.44597 8.13826 7.52454L7.91217 9.75378L8.22611 10.0548L8.44212 10.1916C8.82349 10.434 9.20895 10.5219 9.80012 10.5012C10.246 10.4855 10.3567 10.4648 10.6022 10.3529C10.7441 10.2882 10.8586 10.2661 10.8586 10.3298L10.8672 10.4969H11.593H12.2266L12.218 8.71261V7.00467H11.642H10.8586V7.21204C10.4378 7.02906 10.2516 7.00482 9.76412 7.00467ZM9.76842 7.71895C9.90149 7.7163 10.033 7.74602 10.1702 7.80824C10.5222 7.96783 10.7182 8.21914 10.7866 8.59596C10.857 8.98431 10.5807 9.47763 10.1947 9.65298C9.58919 9.92801 8.89274 9.54059 8.7647 8.85805C8.69342 8.4781 8.96245 8.00691 9.35513 7.82408C9.50085 7.75623 9.63536 7.7216 9.76843 7.71895H9.76842Z" fill="#0083D2"/>
<path d="M3.77338 5.44073V7.87159L3.78202 10.4969H4.36957H5.19906L5.18178 10.2549C5.23323 10.1196 5.21675 10.2671 5.40211 10.3629C5.47667 10.4015 5.76018 10.4615 5.90614 10.4969C6.5605 10.6554 7.31403 10.4995 7.92945 10.1685C8.47865 9.87315 8.67793 9.37344 8.70421 8.7054C8.71969 8.31218 8.59772 8.18584 8.5098 7.95224C8.32118 7.45107 7.72356 7.09455 7.03372 6.93266C6.63299 6.83861 5.98438 6.87564 5.68148 6.99026C5.53181 7.0469 5.34339 7.15525 5.19042 7.20195V6.27454V5.44073H4.39549H3.77338ZM6.40873 7.72326C6.72559 7.69827 7.06627 7.81284 7.3275 8.10345C7.68753 8.50396 7.50662 9.29587 7.0078 9.58817C6.34706 9.92525 5.61028 9.58387 5.50723 8.83213C5.41955 8.19242 5.88061 7.76492 6.40873 7.72326Z" fill="black"/>
</svg>
